<?xml version="1.0" encoding="UTF-8"?>
<map version="1.10" tiledversion="1.12.1" orientation="orthogonal" renderorder="right-down" width="32" height="32" tilewidth="8" tileheight="8" infinite="0" nextlayerid="3" nextobjectid="1">
 <tileset firstgid="1" source="background.tsx"/>
 <tileset firstgid="57" source="grassland.tsx"/>
 <layer id="2" name="Tile Layer 1" width="32" height="32">
  <data encoding="csv">
72,72,72,72,72,73,77,78,78,78,78,78,78,2147483725,72,72,72,72,73,72,72,72,72,72,72,72,72,72,72,72,72,72,
72,72,72,72,72,77,79,61,60,61,60,61,61,2147483727,2147483725,72,72,72,73,72,72,72,72,72,72,72,72,72,72,72,72,72,
72,72,73,77,78,79,61,68,60,60,60,60,61,61,2147483724,73,73,73,73,73,73,72,72,72,72,72,72,72,72,72,72,72,
73,73,73,76,61,61,59,59,62,62,62,60,68,60,2147483724,73,73,72,72,73,73,73,73,73,72,72,72,72,72,72,72,72,
72,72,73,87,83,83,2147483732,62,62,62,62,69,60,60,2147483724,73,73,73,73,72,72,73,73,73,73,73,72,72,72,72,72,72,
72,73,73,76,70,59,2147483733,83,83,2147483732,62,62,60,60,2147483724,72,72,72,72,72,72,73,72,73,73,72,72,72,72,72,72,72,
72,73,77,79,60,60,62,62,62,81,62,62,61,61,2147483724,72,72,72,72,72,72,72,72,72,73,73,73,73,73,73,72,72,
72,72,76,61,60,60,68,62,62,2147483733,2147483732,68,68,61,2147483724,72,72,72,72,72,73,73,73,73,73,73,73,73,73,73,73,73,
72,72,76,61,61,60,60,60,62,60,2147483733,2147483732,68,61,2147483724,73,73,73,73,73,73,72,72,72,72,73,72,72,73,73,72,72,
72,73,80,74,74,75,61,71,60,61,61,81,61,2147483723,2147483728,73,73,73,73,73,73,72,72,73,73,73,73,73,73,73,72,72,
73,72,72,72,72,76,61,61,61,61,2147483723,82,74,2147483728,73,72,72,72,72,72,72,73,73,73,73,73,73,73,72,72,72,72,
72,72,72,72,72,80,74,74,74,74,2147483728,73,73,73,73,73,73,73,73,73,73,72,72,72,73,72,72,72,72,72,72,72,
72,72,72,72,72,73,73,73,73,72,73,73,73,72,72,73,72,73,73,73,73,73,72,73,73,72,72,72,73,73,73,72,
72,72,72,73,73,72,72,73,72,72,73,72,73,73,73,73,72,73,73,72,73,73,73,73,73,73,73,73,73,73,73,73,
72,72,72,73,72,72,72,73,73,73,73,73,72,73,72,73,73,73,73,73,72,72,73,72,72,72,73,72,72,72,72,72,
72,72,73,72,72,72,72,73,72,72,72,72,72,73,72,73,73,72,72,72,73,72,73,72,72,73,73,72,72,72,72,72,
73,72,73,72,72,72,72,72,72,72,73,73,73,73,73,73,73,73,73,72,72,73,73,72,72,73,73,73,73,72,72,72,
72,73,73,73,73,72,72,72,72,73,72,72,73,72,73,72,72,72,72,73,73,73,73,73,73,73,73,72,72,72,72,72,
72,72,73,73,73,73,73,73,73,73,73,73,73,73,72,72,72,72,73,72,73,73,73,73,73,72,72,72,72,72,73,72,
73,73,72,73,72,72,72,73,72,72,73,73,72,72,72,72,72,73,73,73,72,73,72,72,73,72,72,72,72,73,73,72,
73,73,73,72,72,72,72,73,72,73,73,72,72,72,72,72,73,73,72,72,72,73,72,72,72,73,72,72,73,72,73,72,
72,72,72,72,72,72,72,73,73,72,72,72,72,72,72,73,72,73,72,72,72,73,72,72,72,73,72,73,72,72,73,72,
73,73,72,72,72,72,72,72,72,72,72,72,72,72,72,73,73,73,72,72,72,73,72,72,72,73,73,72,72,72,73,72,
72,72,73,73,72,72,72,72,72,72,72,72,72,72,73,72,72,73,72,72,72,73,72,72,72,73,73,72,72,73,73,73,
72,72,72,73,73,73,73,73,72,72,72,72,72,72,73,72,72,72,73,73,73,72,72,73,73,73,73,73,73,73,72,72,
72,72,73,72,72,73,72,72,73,72,72,72,73,73,73,73,73,73,73,73,73,72,73,72,73,72,73,73,73,72,72,72,
73,73,72,72,72,72,73,72,73,73,73,73,73,73,73,73,73,73,73,73,73,73,73,73,72,73,73,73,73,72,72,72,
73,73,72,72,72,72,72,73,73,73,72,72,73,72,73,72,72,72,72,73,72,73,73,73,73,73,72,72,73,72,72,72,
72,72,73,73,73,73,73,73,73,72,72,73,72,72,73,72,72,72,72,73,72,73,73,73,73,73,73,73,73,72,72,72,
72,72,72,72,72,72,73,72,73,72,72,73,72,72,73,72,72,72,73,72,72,72,72,73,73,73,72,72,73,72,72,72,
72,72,72,72,72,73,72,72,73,73,72,73,72,73,72,72,72,73,72,72,72,72,72,73,73,73,72,72,73,72,72,72,
72,72,72,72,72,73,72,73,73,72,73,73,73,73,73,73,73,72,72,72,72,72,72,72,73,73,73,73,72,73,72,72
</data>
 </layer>
</map>
