<?xml version="1.0" encoding="UTF-8"?>
<map version="1.10" tiledversion="1.12.1" orientation="orthogonal" renderorder="right-down" width="32" height="32" tilewidth="8" tileheight="8" infinite="0" nextlayerid="2" nextobjectid="1">
 <tileset firstgid="1" source="background.tsx"/>
 <layer id="1" name="Tile Layer 1" width="32" height="32">
  <data encoding="csv">
33,34,34,34,34,34,34,2147483681,24,24,20,24,20,20,20,20,24,20,20,22,31,31,2147483670,20,24,20,24,24,24,20,20,24,
32,4,5,5,5,5,4,2147483685,2147483681,24,24,24,24,24,24,22,31,31,31,23,25,25,2147483671,31,2147483670,22,31,31,31,2147483670,20,24,
32,5,4,4,2,4,4,5,2147483685,2147483681,24,24,24,20,1073741850,23,25,25,25,38,38,25,25,25,2147483671,23,25,25,25,2684354583,2147483670,20,
32,5,4,16,4,4,2,4,5,2147483685,2147483681,20,20,22,23,25,36,35,25,41,50,25,38,35,38,25,25,41,25,25,2147483669,20,
32,5,4,7,4,4,4,4,4,2,2147483680,24,24,21,25,25,25,38,25,38,41,36,25,38,38,41,41,51,41,25,2147483671,2147483670,
39,29,2,7,5,4,4,4,4,2,2147483680,20,20,26,40,25,25,35,25,36,38,25,41,38,41,38,38,41,41,41,38,2147483669,
20,32,5,7,4,5,4,4,4,5,2147483685,34,34,2147483681,26,27,40,25,25,25,38,38,38,38,38,38,38,41,41,38,25,2147483669,
24,32,5,15,13,13,13,13,16,2,4,2,5,2147483685,20,20,1610612758,40,25,38,35,38,36,38,38,41,41,38,38,41,25,2147483669,
24,32,4,4,4,5,5,5,7,5,4,4,4,4,2147483685,2147483681,20,26,27,40,25,25,25,38,38,25,25,41,41,38,25,2147483669,
20,32,4,4,2147483677,28,29,5,15,13,13,2147483663,4,5,5,2147483685,46,34,2147483681,26,27,40,25,25,25,36,25,38,25,25,25,2147483669,
20,32,4,2147483677,2147483687,20,39,29,4,4,4,44,43,49,43,43,45,5,2147483680,20,20,26,27,40,25,25,25,25,25,2147483688,27,2147483674,
33,37,4,2147483680,20,20,24,39,29,5,5,48,4,4,5,4,5,5,2147483680,20,24,24,1073741850,23,38,38,36,25,35,2147483669,24,24,
32,4,5,2147483685,2147483681,24,24,24,47,43,43,45,6,5,4,4,2,4,2147483685,2147483681,24,20,21,25,38,41,25,35,25,2147483669,24,20,
32,4,5,5,2147483685,2147483681,20,20,32,2,2,4,4,4,5,4,4,5,5,2147483680,20,20,21,35,35,38,41,25,25,2147483669,24,24,
32,5,4,4,5,2147483685,2147483681,20,32,2,4,5,4,2,4,4,4,18,5,2147483680,20,20,21,25,35,25,38,2147483688,27,2147483674,24,20,
32,2,5,4,6,5,2147483680,20,39,29,5,15,16,4,4,6,4,5,2,2147483685,2147483681,24,21,25,25,51,41,2147483669,24,20,20,24,
32,2,4,2,4,6,2147483685,34,34,37,5,4,7,4,4,2147483664,13,2147483663,2,2,2147483680,24,26,27,40,38,38,2147483669,24,20,20,20,
39,29,5,4,4,2,49,49,49,49,2,2,15,13,13,2147483663,4,18,4,5,2147483680,24,24,24,21,38,25,2147483671,31,2147483670,24,24,
24,32,5,5,6,2,2147483677,28,28,29,5,2,2,5,5,19,5,4,5,2147483677,2147483687,20,20,24,21,25,38,25,38,2147483671,3221225498,24,
20,32,4,4,44,43,2147483695,20,20,39,28,29,5,5,1610612765,28,28,28,28,2147483687,20,20,20,24,21,25,41,38,35,25,2147483669,24,
24,47,43,49,45,5,2147483680,24,20,20,20,39,28,28,2147483687,20,20,24,24,20,20,20,24,24,21,38,38,38,25,25,2147483669,24,
24,32,4,4,4,2,2147483685,2147483681,20,20,20,20,20,20,20,20,24,20,20,20,20,24,22,31,23,25,25,41,41,25,2147483671,3221225498,
20,32,5,4,5,5,2,2147483685,2147483681,20,20,20,20,20,24,24,24,24,24,22,31,31,23,25,25,25,50,36,41,41,35,2147483669,
33,37,4,19,30,19,2,6,2147483680,33,46,34,34,2147483681,20,24,24,20,24,21,25,25,25,38,38,25,25,41,38,38,25,2147483669,
32,5,4,5,2,5,2,2,2147483685,37,14,6,6,2147483685,34,2147483681,20,24,22,23,25,25,41,38,25,35,38,38,36,38,25,2147483669,
32,2,4,18,19,30,6,2147483664,2147483663,5,48,2,2,6,6,2147483680,24,24,21,25,35,51,41,41,35,25,35,25,38,38,25,2147483669,
39,29,5,4,2,2,2,2147483655,44,43,45,6,2,6,6,2147483680,24,24,21,35,25,35,38,38,41,38,38,35,35,25,2147483688,2147483674,
20,39,29,5,5,15,13,2147483663,14,2,5,2,2147483664,13,2147483663,2147483680,20,24,21,25,38,35,36,38,36,41,41,38,35,25,2147483669,24,
20,24,39,29,5,2,4,44,45,6,2,6,2147483655,5,2147483677,2147483687,20,24,21,25,35,38,38,41,41,41,41,36,38,25,2147483669,24,
20,20,24,39,28,29,5,48,15,13,13,13,2147483663,2,2147483680,20,20,20,26,40,25,25,38,50,25,41,38,25,25,2147483688,2147483674,24,
20,20,24,24,24,39,29,2147483693,2147483692,2,2,4,5,4,2147483680,20,20,20,24,26,27,27,40,25,25,25,2147483688,27,27,2147483674,24,24,
20,20,20,20,20,20,39,28,42,28,28,28,28,28,2147483687,20,24,20,24,24,24,24,26,27,27,27,2147483674,24,24,24,24,20
</data>
 </layer>
</map>
